resources/svg/pencil-ruler-2-fill.svg

<svg fill="currentColor" viewBox="0 0 24 24" xmlns="http://www.w3.org/2000/svg"><path d="M5.63611 12.7072L7.46454 14.5356L8.87875 13.1214L7.05033 11.293L8.46454 9.87875L10.293 11.7072L11.7072 10.293L9.87875 8.46454L11.293 7.05033L13.1214 8.87875L14.5356 7.46454L12.7072 5.63611L15.5356 2.80768C15.9261 2.41716 16.5593 2.41716 16.9498 2.80768L21.1925 7.05033C21.583 7.44085 21.583 8.07401 21.1925 8.46454L8.46454 21.1925C8.07401 21.583 7.44085 21.583 7.05033 21.1925L2.80768 16.9498C2.41716 16.5593 2.41716 15.9261 2.80768 15.5356L5.63611 12.7072ZM14.1214 18.3635L18.364 14.1209L20.9997 16.7566V20.9999H16.7578L14.1214 18.3635ZM5.63597 9.87812L2.80754 7.04969C2.41702 6.65917 2.41702 6.02601 2.80754 5.63548L5.63597 2.80705C6.02649 2.41653 6.65966 2.41653 7.05018 2.80705L9.87861 5.63548L5.63597 9.87812Z"/></svg>

<svg xmlns="http://www.w3.org/2000/svg" viewBox="0 0 24 24" fill="currentColor">
    <g>
        <path fill="none" d="M0 0h24v24H0z"/>
        <path d="M5.636 12.707l1.828 1.829L8.88 13.12 7.05 11.293l1.414-1.414 1.829 1.828 1.414-1.414L9.88 8.464l1.414-1.414L13.12 8.88l1.415-1.415-1.829-1.828 2.829-2.828a1 1 0 0 1 1.414 0l4.242 4.242a1 1 0 0 1 0 1.414L8.464 21.192a1 1 0 0 1-1.414 0L2.808 16.95a1 1 0 0 1 0-1.414l2.828-2.829zm8.485 5.656l4.243-4.242L21 16.757V21h-4.242l-2.637-2.637zM5.636 9.878L2.807 7.05a1 1 0 0 1 0-1.415l2.829-2.828a1 1 0 0 1 1.414 0L9.88 5.635 5.636 9.878z"/>
    </g>
</svg>
